images_sukapura_svg/cmd/sc_setminimalcolumnwidth.svg

<svg viewBox="0 0 16 16" xmlns="http://www.w3.org/2000/svg">/&amp;gt;<g transform="matrix(0 1 -1 0 15.999969 -.000031)"><path d="m1 6v4h14v-4z" fill="#fff"/><path d="m0 5v1 5h.99804688v-5h4.00195312 1 1.0957031 2.9042969 1 1 3.001953v5h.998047v-5-1h-4.314453c-.0382.00497-.07374.01549-.113281.017578-.08304.0043867-.168835-.0055912-.253907-.017578h-1.316406v.4804688c.000101.00715-.0019.014328-.002.021484v-.5019528h-2.9979999-.0019531-1.3945312c-.0616138.005337-.1233499.0151151-.1835938.0117188-.0259046-.0014606-.0488802-.0089885-.0742188-.0117188zm1 5v1h4 .3574219c.025319-.0027.048337-.01026.074219-.01172.060225-.0034.1219989.0064.1835938.01172h.3847653 1 .0117188 2.9980472.990234.328125c.0851-.012.170817-.02197.253906-.01758.03956.0021.07506.01258.113281.01758h3.304688v-1h-3-1-.990234-.0937504-2.8105468-.1054688-1-1z" fill="#69696e"/><path d="m5 6v4h1v-4zm6 0v4h1v-4z" fill="#bababa"/></g></svg>

<?xml version="1.0" encoding="UTF-8" standalone="no"?>
<svg
   xmlns:dc="http://purl.org/dc/elements/1.1/"
   xmlns:cc="http://creativecommons.org/ns#"
   xmlns:rdf="http://www.w3.org/1999/02/22-rdf-syntax-ns#"
   xmlns:svg="http://www.w3.org/2000/svg"
   xmlns="http://www.w3.org/2000/svg"
   xmlns:sodipodi="http://sodipodi.sourceforge.net/DTD/sodipodi-0.dtd"
   xmlns:inkscape="http://www.inkscape.org/namespaces/inkscape"
   viewBox="0 0 16 16"
   version="1.1"
   id="svg10"
   sodipodi:docname="sc_setminimalcolumnwidth.svg"
   inkscape:version="0.92.3 (unknown)"
   inkscape:export-filename="/home/rizmut/Dokumen/Rizmut/Github/libreoffice-style-sukapura/images_sukapura/cmd/sc_setoptimalcolumnwidth.png"
   inkscape:export-xdpi="96"
   inkscape:export-ydpi="96"><metadata
   id="metadata16">
  <rdf:RDF>
    <cc:Work
       rdf:about="">
      <dc:format>image/svg+xml</dc:format>
      <dc:type
         rdf:resource="http://purl.org/dc/dcmitype/StillImage" />
      <dc:title></dc:title>
    </cc:Work>
  </rdf:RDF>
</metadata>
<defs
   id="defs14">
  <linearGradient
     gradientTransform="translate(75,-7)"
     id="a-367"
     gradientUnits="userSpaceOnUse"
     x1="14"
     x2="13.79661"
     y1="22"
     y2="2.1355929">
    <stop
       offset="0"
       stop-color="#0040dd"
       id="stop2206" />
    <stop
       offset="1"
       stop-color="#0a84ff"
       id="stop2208" />
  </linearGradient>
</defs>
<sodipodi:namedview
   pagecolor="#ffffff"
   bordercolor="#666666"
   borderopacity="1"
   objecttolerance="10"
   gridtolerance="10"
   guidetolerance="10"
   inkscape:pageopacity="0"
   inkscape:pageshadow="2"
   inkscape:window-width="1366"
   inkscape:window-height="706"
   id="namedview12"
   showgrid="true"
   inkscape:zoom="20.85965"
   inkscape:cx="2.8958059"
   inkscape:cy="7.9656061"
   inkscape:window-x="0"
   inkscape:window-y="0"
   inkscape:window-maximized="1"
   inkscape:current-layer="g2248">
  <inkscape:grid
     type="xygrid"
     id="grid823"
     spacingx="0.5"
     spacingy="0.5"
     empspacing="2" />
</sodipodi:namedview>



     /&gt;
 <g
   id="g2248"
   transform="rotate(90,8,7.9999695)">
  <path
     sodipodi:nodetypes="ccccc"
     style="fill:#ffffff"
     inkscape:connector-curvature="0"
     id="path2"
     d="m 1,6 v 4 H 15 V 6 Z" />
  <path
     id="path4"
     d="m 0,5 v 1 5 H 0.99804688 V 6 H 5 6 7.0957031 10 h 1 1 3.001953 v 5 H 16 V 6 5 h -4.314453 c -0.0382,0.00497 -0.07374,0.01549 -0.113281,0.017578 C 11.489226,5.0219647 11.403431,5.0119868 11.318359,5 h -1.316406 v 0.4804688 c 1.01e-4,0.00715 -0.0019,0.014328 -0.002,0.021484 V 5 H 7.0019531 7 5.6054688 C 5.543855,5.005337 5.4821189,5.0151151 5.421875,5.0117188 5.3959704,5.0102582 5.3729948,5.0027303 5.3476562,5 Z m 1,5 v 1 h 4 0.3574219 c 0.025319,-0.0027 0.048337,-0.01026 0.074219,-0.01172 0.060225,-0.0034 0.1219989,0.0064 0.1835938,0.01172 H 6 7 7.0117188 10.009766 11 11.328125 c 0.0851,-0.012 0.170817,-0.02197 0.253906,-0.01758 0.03956,0.0021 0.07506,0.01258 0.113281,0.01758 H 15 V 10 H 12 11 10.009766 9.9160156 7.1054688 7 6 5 Z"
     style="fill:#69696e;fill-opacity:1"
     inkscape:connector-curvature="0" />
  <path
     id="rect1530"
     d="m 5,6 v 4 H 6 V 6 Z m 6,0 v 4 h 1 V 6 Z"
     style="fill:#bababa;fill-opacity:1"
     inkscape:connector-curvature="0" />
</g>
</svg>
